public/img/4.svg

<svg width="216" height="275" viewBox="0 0 216 275" fill="none" xmlns="http://www.w3.org/2000/svg">
<g opacity="0.7">
<g clip-path="url(#clip0)">
<mask id="mask0" mask-type="alpha" maskUnits="userSpaceOnUse" x="-85" y="-71" width="536" height="535">
<path fill-rule="evenodd" clip-rule="evenodd" d="M8.00334 171.282C5.17816 179.59 2.86219 188.048 1.02543 196.488L109.907 88.7548C107.885 88.7233 105.862 88.6735 103.842 88.6238C100.544 88.5427 97.2539 88.4617 93.9871 88.4609L8.00334 171.282ZM17.0324 149.034L76.7106 89.6954C68.2302 91.173 60.1428 94.2953 52.7786 100.656C37.6667 113.707 25.8795 130.546 17.0324 149.034ZM121.655 88.5955L-2.1896 214.47C-2.99606 220.058 -3.71475 225.733 -4.30394 231.44L144.062 83.9344C136.861 86.9673 129.321 88.1774 121.655 88.5955ZM180.807 47.4022L249.349 -20.7423C246.283 -20.6628 243.154 -20.2931 239.964 -19.6041C217.721 -14.7991 204.356 7.87222 190.605 31.1987C187.399 36.637 184.173 42.1108 180.807 47.4022ZM261.455 -19.5422L-5.35787 243.775C-5.7929 250.306 -6.02067 256.832 -5.97934 263.275L267.851 -17.665C265.756 -18.4232 263.624 -19.0531 261.455 -19.5422ZM275.592 -14.2109L-5.57636 275.162C-5.38378 278.206 -5.11967 281.219 -4.77711 284.194L286.875 -6.78C283.263 -9.62704 279.5 -12.1346 275.592 -14.2109ZM290.598 -3.68215L-3.12755 295.062C-2.28631 299.46 -1.23975 303.741 0.0372073 307.873L301.92 7.81439C298.347 3.67651 294.571 -0.200213 290.598 -3.68215ZM310.937 19.3455L2.93956 316.013C4.87645 320.758 7.17632 325.255 9.88383 329.446L315.896 26.6615C314.304 24.1956 312.651 21.7502 310.937 19.3455ZM319.015 31.6435L16.9625 338.645C17.1074 338.804 17.2531 338.961 17.3996 339.118C19.4943 341.364 21.7119 343.429 24.04 345.322L326.366 44.7482C325.995 43.9825 325.608 43.2231 325.203 42.4705C323.275 38.8895 321.211 35.2595 319.015 31.6435ZM329.453 52.3552L28.7712 348.837C33.1091 351.776 37.7632 354.207 42.6663 356.183L331.423 59.4214C330.877 57.0226 330.226 54.6655 329.453 52.3552ZM332.994 68.4828L51.1929 359.104C53.8535 359.866 56.5701 360.516 59.3335 361.061L333.956 87.1236C333.991 80.7573 333.744 74.518 332.994 68.4828ZM333.802 94.541L69.953 362.631C74.6934 363.114 79.5301 363.334 84.4215 363.325L332.636 116.522C332.731 114.891 332.828 113.262 332.925 111.634C333.268 105.896 333.61 100.181 333.802 94.541ZM331.88 136.23L96.5984 362.856C104.241 362.295 111.932 361.255 119.518 359.857L332.229 149.389C331.939 145.049 331.846 140.655 331.88 136.23ZM333.162 158.033L139.464 354.906C154.07 349.036 166.146 336.267 178.312 323.402C190.788 310.209 203.358 296.916 218.849 290.862L336.72 173.674C335.216 168.437 333.97 163.215 333.162 158.033ZM339.766 183.406L234.707 287.088C239.629 286.555 244.631 286.515 249.669 286.785L342.561 191.481C341.607 188.792 340.667 186.099 339.766 183.406ZM348.575 208.455L270.178 289.14C272.22 289.455 274.258 289.781 276.29 290.107C278.266 290.423 280.236 290.738 282.198 291.042L352.488 220.915C351.337 216.795 350.002 212.638 348.575 208.455ZM354.701 229.997L293.191 292.559C299.65 293.297 305.954 293.665 312.001 293.245L356.312 249.202C356.701 242.96 356.033 236.54 354.701 229.997Z" fill="white"/>
</mask>
<g mask="url(#mask0)">
<path d="M197.005 188.78V212.491H167.14V188.78H111.211V174.481L162.253 85.7909H197.005V162.173H208.046V188.78H197.005ZM170.941 121.629H170.579L147.23 163.44H169.312V143.168L170.941 121.629Z" fill="white"/>
</g>
</g>
</g>
<defs>
<clipPath id="clip0">
<rect width="215.608" height="274.079" fill="white"/>
</clipPath>
</defs>
</svg>

<svg width="216" height="275" fill="none" xmlns="http://www.w3.org/2000/svg"><g clip-path="url(#clip0)" opacity=".7"><mask id="a" maskUnits="userSpaceOnUse" x="-85" y="-71" width="536" height="535"><path fill-rule="evenodd" clip-rule="evenodd" d="M8.003 171.282c-2.825 8.308-5.14 16.766-6.978 25.206L109.907 88.755a680.037 680.037 0 01-6.065-.131c-3.298-.081-6.588-.162-9.855-.163L8.003 171.282zm9.03-22.248L76.71 89.695c-8.48 1.478-16.568 4.6-23.932 10.961-15.112 13.051-26.9 29.89-35.747 48.378zm104.622-60.438L-2.19 214.47a423.298 423.298 0 00-2.114 16.97L144.062 83.934c-7.201 3.033-14.741 4.243-22.407 4.662zm59.152-41.194l68.542-68.144a50.58 50.58 0 00-9.385 1.138c-22.243 4.805-35.608 27.476-49.359 50.803-3.206 5.438-6.432 10.912-9.798 16.203zm80.648-66.944L-5.358 243.775c-.435 6.531-.663 13.057-.621 19.5l273.83-280.94a53.129 53.129 0 00-6.396-1.877zm14.137 5.331L-5.576 275.162c.192 3.044.456 6.057.799 9.032L286.875-6.78c-3.612-2.847-7.375-5.355-11.283-7.43zm15.006 10.529L-3.128 295.062c.842 4.398 1.888 8.679 3.165 12.811L301.92 7.814c-3.573-4.137-7.349-8.014-11.322-11.496zm20.339 23.027L2.94 316.014c1.936 4.745 4.236 9.242 6.944 13.433L315.896 26.661a192.44 192.44 0 00-4.959-7.316zm8.078 12.299l-302.053 307a66.047 66.047 0 007.078 6.677L326.366 44.748a60.169 60.169 0 00-1.163-2.277 240.777 240.777 0 00-6.188-10.827zm10.438 20.711L28.771 348.837c4.338 2.939 8.992 5.37 13.895 7.346L331.423 59.421a74.035 74.035 0 00-1.97-7.066zm3.541 16.128L51.193 359.104a99.466 99.466 0 008.14 1.957L333.957 87.124c.035-6.367-.212-12.606-.962-18.641zm.808 26.058L69.953 362.631c4.74.483 9.577.703 14.468.694l248.215-246.803c.095-1.631.192-3.26.289-4.888.343-5.738.685-11.453.877-17.093zm-1.922 41.689L96.598 362.856c7.643-.561 15.334-1.601 22.92-2.999l212.711-210.468c-.29-4.34-.383-8.734-.349-13.159zm1.282 21.803L139.464 354.906c14.606-5.87 26.682-18.639 38.848-31.504 12.476-13.193 25.046-26.486 40.537-32.54L336.72 173.674c-1.504-5.237-2.75-10.459-3.558-15.641zm6.604 25.373L234.707 287.088c4.922-.533 9.924-.573 14.962-.303l92.892-95.304a473.6 473.6 0 01-2.795-8.075zm8.809 25.049l-78.397 80.685c2.042.315 4.08.641 6.112.967 1.976.316 3.946.631 5.908.935l70.29-70.127c-1.151-4.12-2.486-8.277-3.913-12.46zm6.126 21.542l-61.51 62.562c6.459.738 12.763 1.106 18.81.686l44.311-44.043c.389-6.242-.279-12.662-1.611-19.205z" fill="#fff"/></mask><g mask="url(#a)"><path d="M197.005 188.78v23.711H167.14V188.78h-55.929v-14.299l51.042-88.69h34.752v76.382h11.041v26.607h-11.041zm-26.064-67.151h-.362L147.23 163.44h22.082v-20.272l1.629-21.539z" fill="#fff"/></g></g><defs><clipPath id="clip0"><path fill="#fff" d="M0 0h215.608v274.079H0z"/></clipPath></defs></svg>
